dist/img/icons/specialty/8.svg

<svg width="64" height="64" viewBox="0 0 64 64" fill="none" xmlns="http://www.w3.org/2000/svg">
<path d="M33.9548 43.0509L33.9492 42.9759C33.9354 42.7848 33.8669 42.6017 33.7519 42.4484C33.637 42.2951 33.4804 42.1781 33.3008 42.1112C33.1212 42.0444 32.9262 42.0305 32.739 42.0713C32.5518 42.1121 32.3802 42.2058 32.2448 42.3413L31.4815 43.1045C30.8228 43.7615 29.9305 44.1304 29.0002 44.1304C28.07 44.1304 27.1777 43.7615 26.519 43.1045L25.8962 42.4815C24.8622 41.4499 23.4612 40.8705 22.0005 40.8705C20.5398 40.8705 19.1388 41.4499 18.1047 42.4815L17.482 43.1043C16.8234 43.7613 15.931 44.1302 15.0007 44.1302C14.0705 44.1302 13.1781 43.7613 12.5195 43.1043C11.7729 42.3631 10.8301 41.8505 9.8021 41.6269C8.77408 41.4032 7.70358 41.4778 6.7165 41.8418C6.5394 41.907 6.38437 42.0211 6.26935 42.1707C6.15433 42.3204 6.084 42.4995 6.0665 42.6874C6.0215 43.1642 6 43.5934 6 44C6 47.7131 7.475 51.274 10.1005 53.8995C12.726 56.525 16.287 58 20 58C23.713 58 27.274 56.525 29.8995 53.8995C32.525 51.274 34 47.7131 34 44C34 43.6679 33.977 43.3543 33.9548 43.0509ZM20 56C16.8185 55.9965 13.7683 54.731 11.5187 52.4814C9.269 50.2317 8.00357 47.1815 8 44C8 43.8567 8.00325 43.7089 8.00988 43.5554C8.56509 43.4556 9.13618 43.491 9.67482 43.6587C10.2134 43.8263 10.7038 44.1213 11.1042 44.5185C12.1383 45.5503 13.5393 46.1297 15 46.1297C16.4607 46.1297 17.8617 45.5503 18.8958 44.5185L19.5185 43.8958C20.1772 43.2388 21.0695 42.8699 21.9998 42.8699C22.93 42.8699 23.8223 43.2388 24.481 43.8958L25.1038 44.5188C25.9872 45.3999 27.1431 45.9557 28.3829 46.0955C29.6228 46.2353 30.8734 45.9509 31.9309 45.2887C31.6093 48.2295 30.2142 50.9485 28.0128 52.9248C25.8114 54.9012 22.9584 55.9962 20 56Z" fill="#F1B08D"/>
<path d="M38.0001 44C38.0157 39.9227 36.6315 35.9635 34.0788 32.7841C31.7506 29.8715 28.58 27.7487 25.0001 26.7055V23.828C25.667 23.5919 26.2291 23.1277 26.5869 22.5174C26.9447 21.9071 27.0754 21.1899 26.9557 20.4927C26.8361 19.7954 26.4738 19.1628 25.933 18.7067C25.3922 18.2506 24.7076 18.0003 24.0001 18H16.0001C15.2927 18.0003 14.608 18.2506 14.0672 18.7067C13.5264 19.1628 13.1642 19.7954 13.0445 20.4927C12.9249 21.1899 13.0555 21.9071 13.4134 22.5174C13.7712 23.1277 14.3332 23.5919 15.0001 23.828V26.7055C11.4203 27.7487 8.24969 29.8715 5.9215 32.7841C3.36879 35.9635 1.98456 39.9227 2.00013 44C2.00013 53.925 10.0751 62 20.0001 62C29.9251 62 38.0001 53.925 38.0001 44ZM16.0001 20H24.0001C24.2653 20 24.5197 20.1054 24.7072 20.2929C24.8948 20.4804 25.0001 20.7348 25.0001 21C25.0001 21.2652 24.8948 21.5196 24.7072 21.7071C24.5197 21.8946 24.2653 22 24.0001 22H16.0001C15.7349 22 15.4806 21.8946 15.293 21.7071C15.1055 21.5196 15.0001 21.2652 15.0001 21C15.0001 20.7348 15.1055 20.4804 15.293 20.2929C15.4806 20.1054 15.7349 20 16.0001 20ZM20.0001 60C15.7581 59.9952 11.6913 58.308 8.69172 55.3084C5.69218 52.3089 4.00493 48.242 4.00013 44C3.98608 40.3762 5.21619 36.8573 7.48488 34.0315C9.7038 31.2536 12.7809 29.2896 16.2349 28.4468C16.4529 28.3941 16.647 28.2696 16.7858 28.0934C16.9246 27.9171 17.0001 27.6993 17.0001 27.475V24H23.0001V27.475C23.0001 27.6994 23.0756 27.9173 23.2145 28.0937C23.3533 28.27 23.5475 28.3945 23.7656 28.4471C27.2196 29.29 30.2967 31.254 32.5156 34.0319C34.7841 36.8576 36.0142 40.3763 36.0001 44C35.9953 48.242 34.3081 52.3089 31.3085 55.3084C28.309 58.308 24.2421 59.9952 20.0001 60Z" fill="#F1B08D"/>
<path d="M12 48H14V50H12V48Z" fill="#F1B08D"/>
<path d="M18 52H20V54H18V52Z" fill="#F1B08D"/>
<path d="M21 46H23V48H21V46Z" fill="#F1B08D"/>
<path d="M25 49H27V51H25V49Z" fill="#F1B08D"/>
<path d="M54 2H10C8.67437 2.00149 7.40347 2.52875 6.46611 3.46611C5.52875 4.40347 5.00149 5.67437 5 7V28H7V7C7.00093 6.20463 7.31729 5.44211 7.8797 4.8797C8.44211 4.31729 9.20463 4.00093 10 4H54C54.7954 4.00093 55.5579 4.31729 56.1203 4.8797C56.6827 5.44211 56.9991 6.20463 57 7V57C56.9991 57.7954 56.6827 58.5579 56.1203 59.1203C55.5579 59.6827 54.7954 59.9991 54 60H32V62H54C55.3256 61.9985 56.5965 61.4712 57.5339 60.5339C58.4712 59.5965 58.9985 58.3256 59 57V7C58.9985 5.67437 58.4712 4.40347 57.5339 3.46611C56.5965 2.52875 55.3256 2.00149 54 2Z" fill="#F1B08D"/>
<path d="M41 34H54V36H41V34Z" fill="#F1B08D"/>
<path d="M41 38H54V40H41V38Z" fill="#F1B08D"/>
<path d="M41 42H52V44H41V42Z" fill="#F1B08D"/>
<path d="M48 30H54V32H48V30Z" fill="#F1B08D"/>
<path d="M44 30H46V32H44V30Z" fill="#F1B08D"/>
<path d="M34 14V16.382L30.5527 18.1056C30.3867 18.1887 30.247 18.3163 30.1493 18.4743C30.0517 18.6323 30 18.8143 30 19V24C30 24.1857 30.0517 24.3677 30.1493 24.5257C30.247 24.6837 30.3867 24.8113 30.5527 24.8944L34 26.618V29H36V26.618L39 25.118L42.5527 26.8944C42.6916 26.9638 42.8447 27 43 27C43.1553 27 43.3084 26.9638 43.4473 26.8944L47.236 25H50V23H48V19.618L51.236 18H54V16H52V12C52 11.8143 51.9483 11.6323 51.8507 11.4743C51.753 11.3163 51.6133 11.1887 51.4473 11.1056L48 9.382V7H46V9.382L42.764 11H40V13H42V16.382L39 17.882L36 16.382V14H34ZM46 23.382L43 24.882L40 23.382V19.618L43 18.118L46 19.618V23.382ZM44 12.618L47 11.118L50 12.618V16.382L47 17.882L44 16.382V12.618ZM38 23.382L35 24.882L32 23.382V19.618L35 18.118L38 19.618V23.382Z" fill="#F1B08D"/>
<path d="M40 57H54V55H52V50H50V55H48V48H46V55H44V52H42V55H40V57Z" fill="#F1B08D"/>
<path d="M10 7V17H12V15H23V13H12V11H27V9H12V7H10Z" fill="#F1B08D"/>
<path d="M25 13H27V15H25V13Z" fill="#F1B08D"/>
<path d="M29 9H31V11H29V9Z" fill="#F1B08D"/>
<path d="M16.3072 32.5785L15.6925 30.675C13.0284 31.5346 10.6843 33.1752 8.96436 35.3838L10.54 36.6156C12.0142 34.7222 14.0236 33.3156 16.3072 32.5785Z" fill="#F1B08D"/>
<path d="M9.35105 38.4625L7.57743 37.5375C7.21687 38.2294 6.91493 38.9503 6.6748 39.6926L8.57805 40.3074C8.78368 39.6719 9.04225 39.0547 9.35105 38.4625Z" fill="#F1B08D"/>
</svg>

<svg width="64" height="64" fill="none" xmlns="http://www.w3.org/2000/svg"><path d="M33.955 43.05l-.006-.074a.999.999 0 00-1.704-.635l-.763.764a3.514 3.514 0 01-4.963 0l-.623-.623a5.516 5.516 0 00-7.791 0l-.623.622a3.513 3.513 0 01-4.962 0 5.523 5.523 0 00-5.803-1.262 1 1 0 00-.65.845A13.27 13.27 0 006 44a14 14 0 1028 0c0-.332-.023-.646-.045-.95zM20 56A12.013 12.013 0 018.01 43.555a3.511 3.511 0 013.094.964 5.516 5.516 0 007.792 0l.622-.623a3.514 3.514 0 014.963 0l.623.623a5.52 5.52 0 006.827.77A12.018 12.018 0 0120 56z" fill="#F1B08D"/><path d="M38 44a17.806 17.806 0 00-3.921-11.216A18.109 18.109 0 0025 26.706v-2.878A3 3 0 0024 18h-8a3 3 0 00-1 5.828v2.878a18.109 18.109 0 00-9.079 6.078A17.806 17.806 0 002.002 44c0 9.925 8.074 18 18 18 9.924 0 18-8.075 18-18zM16 20h8a1 1 0 010 2h-8a1 1 0 010-2zm4 40A16.018 16.018 0 014 44a15.825 15.825 0 013.485-9.968 16.076 16.076 0 018.75-5.585 1 1 0 00.765-.972V24h6v3.475a1 1 0 00.766.972 16.077 16.077 0 018.75 5.585A15.824 15.824 0 0136 44a16.018 16.018 0 01-16 16z" fill="#F1B08D"/><path d="M12 48h2v2h-2v-2zm6 4h2v2h-2v-2zm3-6h2v2h-2v-2zm4 3h2v2h-2v-2z" fill="#F1B08D"/><path d="M54 2H10a5.006 5.006 0 00-5 5v21h2V7a3.004 3.004 0 013-3h44a3.003 3.003 0 013 3v50a3.003 3.003 0 01-3 3H32v2h22a5.006 5.006 0 005-5V7a5.006 5.006 0 00-5-5z" fill="#F1B08D"/><path d="M41 34h13v2H41v-2zm0 4h13v2H41v-2zm0 4h11v2H41v-2zm7-12h6v2h-6v-2zm-4 0h2v2h-2v-2zM34 14v2.382l-3.447 1.724A1.001 1.001 0 0030 19v5a1 1 0 00.553.894L34 26.618V29h2v-2.382l3-1.5 3.553 1.776a1 1 0 00.894 0L47.236 25H50v-2h-2v-3.382L51.236 18H54v-2h-2v-4a1 1 0 00-.553-.894L48 9.382V7h-2v2.382L42.764 11H40v2h2v3.382l-3 1.5-3-1.5V14h-2zm12 9.382l-3 1.5-3-1.5v-3.764l3-1.5 3 1.5v3.764zm-2-10.764l3-1.5 3 1.5v3.764l-3 1.5-3-1.5v-3.764zm-6 10.764l-3 1.5-3-1.5v-3.764l3-1.5 3 1.5v3.764zM40 57h14v-2h-2v-5h-2v5h-2v-7h-2v7h-2v-3h-2v3h-2v2zM10 7v10h2v-2h11v-2H12v-2h15V9H12V7h-2z" fill="#F1B08D"/><path d="M25 13h2v2h-2v-2zm4-4h2v2h-2V9zM16.307 32.578l-.614-1.903a13.96 13.96 0 00-6.729 4.709l1.576 1.232a11.969 11.969 0 015.767-4.038zm-6.956 5.884l-1.774-.925c-.36.692-.662 1.413-.902 2.156l1.903.614c.206-.635.464-1.252.773-1.845z" fill="#F1B08D"/></svg>
